X:1
T:Title
%%score 1 2
L:1/8
Q:1/4=115
M:4/4
K:G
V:1 treble nm="Grand Piano, Soprano"
V:2 bass nm="Choir Pad, No Shadows Yonder"
V:1
 [DB]4 [EA]2 E2 | [DF]4 D4 | [DG]4 [DA]2 [DA]2 | [DB]8 | [Ee]4 [=Fd]2 [FB]2 | [Ec]4 [EA]2 [EA]2 | %6
w: By~Alfred~Robert~Gaul~,~from~“The~Holy~City” * *||||||
 [DF]2 [DF]2 [DG]4 | [DA]6 [DA]2 | [DB]4 [^DB]2 [DB]2 | [Ee]4 [Ec]2 E2 | [DG]2 [DG]2 [CF]4 | %11
w: |||||
 [B,G]8 |] %12
w: |
V:2
 [G,B,]4 [G,C]2 [G,C]2 | [A,C]4 [F,C]4 | [G,B,]4 [D,F,]2 [D,F,]2 | [G,,G,]8 | %4
 [C,G,]4 [C,^G,]2 [C,G,]2 | [C,A,]4 [C,C]2 [C,C]2 | [D,C]2 [D,C]2 [E,C]4 | [F,C]6 [F,C]2 | %8
 [G,B,]4 [F,A,]2 [F,A,]2 | [E,^G,]4 [A,,A,]2 [C,A,]2 | [D,A,]2 [D,A,]2 [D,A,]4 | [G,,G,]8 |] %12

